svg/gu.svg

<?xml version="1.0" encoding="UTF-8"?>
<svg width="820" height="440" version="1.0" xmlns="http://www.w3.org/2000/svg">
  <rect width="820" height="440" fill="#c62139"/>
  <rect x="20" y="20" width="780" height="400" fill="#00297b"/>
  <path d="m410.26 100s-80.257 54.71-80.257 119.22c0 64.521 80.257 120.78 80.257 120.78s79.743-51.619 79.743-120.78c0-69.156-79.743-119.22-79.743-119.22" fill="#c62139"/>
  <path d="m477.92 240.56c1.7605-6.864 2.7606-13.991 2.7606-21.34 0-61.93-70.426-107.86-70.426-107.86s-71.455 47.485-71.455 107.86c0 7.251 1.0177 14.316 2.8133 21.16l136.31 0.18063" fill="#66afeb"/>
  <path d="m409.67 328.13s55.236-36.58 68.226-87.745h-136.34c13.189 50.179 68.109 87.745 68.109 87.745" fill="#007bde"/>
  <path d="m480.34 226.45c-12.084 8.6083-80.088 4.4745-80.088 4.4745l-3.8017 9.6353h81.468c0.33923-1.3212 0.64923-2.6424 0.92997-3.979l1.4914-10.131" fill="#9c8431"/>
  <path d="m406.08 287.36c-1.0352-7.2097-32.841-14.93-49.721-14.296 5.2698 8.2677 11.241 15.834 17.248 22.558 8.5744-9.2018 32.812-5.8834 32.473-8.2625" fill="#fff100"/>
  <path d="m470.45 260.55c-4.0415 0.14451-11.376 0.78962-16.4 3.4062-7.2467 3.7829-23.471 7.9168-30.724 5.8473-7.2467-2.0643-18.64 4.4745-17.254 5.8473 2.2986 2.2966 18.979-0.34062 18.979 14.456 0 12.386-19.324 6.8846-26.922 12.045-4.5796 3.1017-7.7731 6.4717-9.5862 8.6393 11.861 10.977 21.149 17.335 21.149 17.335s22.021-14.585 41.521-38.201l9.1709-12.169c3.6965-5.4137 7.1239-11.158 10.066-17.206" fill="#fff100"/>
  <path d="m384.64 257.16h2.9244v-31.481h-2.9244v31.481z"/>
  <path d="m394.14 263.1s-1.199 0.2116-3.1057 0.45416v-2.4566h-1.9418v2.6682c-1.9886 0.20128-4.3983 0.36642-6.925 0.36642-2.6846 0-5.3926-0.19611-7.6268-0.42319v-2.5443h-2.1407v2.3017c-1.8482-0.23224-3.0414-0.43351-3.0414-0.43351s-0.58488 3.2255 12.622 3.2255c13.201 0 12.166-3.1584 12.166-3.1584" fill="#7b4800"/>
  <path d="m405.86 165.17s-11.007-6.4511-26.021-3.3597c-15.014 3.0965-18.254 12.51-18.254 12.51l5.0475-2.3172 0.12868 2.0643 4.5328-2.8385 0.12867 2.0643 3.8836-3.6074 0.63753 2.3172 3.4976-3.0965 0.2632 1.6773 5.6909-3.6126v2.3224l4.5328-2.0695-0.38602 2.1985 8.5451-1.5431s-20.196 6.704-22.781 22.832l3.8778-4.6345 0.39187 2.183 2.4565-4.8977 0.64922 1.9353 2.1992-4.5158 0.64338 2.7043 3.3631-4.9028 0.2632 2.8436 3.8778-5.2899v2.5701l4.1468-4.5158-0.12868 3.3649s4.0123-3.3649 5.299-3.3649l-4.7843 6.1982 1.5558 0.51609s-3.3689 2.7094-3.6263 3.2255c-0.25735 0.51092 2.205 0 2.205 0s-2.9829 3.0914-3.1116 3.9997c-0.12867 0.90831 1.9418 0 1.9418 0s-2.7197 3.4784-3.1057 4.779c-0.39187 1.2902 1.4212 0.25288 1.4212 0.25288s-1.6786 4.1287-1.8131 5.2899c-0.12868 1.1509 1.9418-0.26321 1.9418-0.26321l1.1698 7.0962 2.0705-8.5051 1.2926 1.9353v-6.0692l1.1639 1.027-0.12866-3.9894 1.5499 1.5431-0.77205-4.9028 1.6786 1.925-0.25735-4.1184 1.6786 1.6824v-5.4241l1.5558 1.4089 0.25735-3.7262 1.8131 0.89799s0.25735-4.5158 2.3337-4.3867c2.0646 0.1187 4.6557 2.3172 3.6204 3.3442l1.8131-0.5006-0.38602 4.3712 1.6786-1.027-0.25735 3.2255 1.4213-0.64511-0.51469 4.1235 1.6845-1.0167 0.12282 5.0164 1.936-1.4089-0.12868 5.9247 1.9418-1.5379v4.8977l1.8131-1.2799 1.9476 4.7686-0.39186-7.0962 1.4271 1.156-2.5969-5.0267 1.9477-0.2632-2.0763-3.3597 1.9418 0.1445-2.8425-3.3597 1.936-0.3819-4.2755-3.1017 2.3337-0.89799-4.4042-2.8436 1.6845-0.64511-3.0999-3.2255 3.2344 1.2902 1.0294-2.0644 3.8836 3.1017v-3.1017l3.3631 4.6448 0.39188-2.8436 2.591 3.6178 0.5147-1.6721 1.8131 3.6074 0.90072-2.6991 1.8131 3.8706 0.5147-2.7198 1.6845 4.2629 1.5558-1.6824 0.77789 4.3919 1.5441-1.6824 1.4213 3.8706 1.8131-1.4192 1.5558 4.3919s4.2696-23.487-32.362-23.879l-10.873-2.054" fill="#009270"/>
  <path d="m389.03 144.26 2.0646 2.5701-1.0352 0.78446 3.4976 1.9353-0.7779 1.4141 3.4976 1.2902-1.2984 1.0373 3.1116 1.796-2.0705 0.65543 3.7491 1.8011-0.51469 1.6721 3.2344 0.77929-1.4213 1.156 3.7491 2.9778 4.2755 2.9623 2.977-1.027-1.1698-5.6873s-12.294-16.773-21.869-16.128" fill="#009270"/>
  <path d="m400.29 128 1.4271 3.3442-1.9476 0.39223 4.4042 4.3867-3.4976 0.12902 4.2755 3.3494-2.0763 0.65542 3.8895 3.8706-2.0763 1.027 4.0123 3.9997-2.7138 1.027 4.5328 4.1338-2.591 0.13418 2.7138 3.4733-2.4565 0.77929s2.977 5.5428 2.8425 7.8703l5.0475 0.25288s0.77788-14.966 0.13452-16.902l-1.2984 0.90315 0.38603-5.4189-1.9418 1.1664-0.38018-6.4511-1.9477 2.0592-0.50884-6.3221-1.4271 2.1985-1.4271-6.1982-1.5499 1.9353-1.4271-3.9945-1.1639 1.5431-3.2344-3.3546" fill="#009270"/>
  <path d="m413.36 165.68c1.4271-9.0315 10.879-22.192 28.612-22.708l-4.0181 2.0643 2.3337 1.0322-4.6615 1.6824 2.3278 1.4089-5.5622 0.39223 2.8425 1.9353-4.1351 0.51609-3.2402 0.64511 2.3278 2.1882-4.6615 0.51093 2.9829 1.5534s-7.3812 2.5804-7.8959 3.3597c0 0 24.857-6.3221 30.94 5.4086l-4.796-2.0644 0.39188 2.1985-3.3631-2.4514 0.5147 1.8063-3.4917-1.8063 0.5147 2.1882-3.6263-2.0644 0.7779 1.9456-4.6615-2.1985 0.77789 2.0643-4.0123-1.2902 0.39187 2.1882-4.0181-0.25288 0.39186 2.5804-12.429-0.2632-1.5558-2.5804" fill="#009270"/>
  <path d="m409.57 173.46 2.591-0.17031c-1.2107 24.607-0.07607 59.887 3.2753 72.949 5.6909 22.187 22.284 30.733 26.232 32.859 2.2401 1.1973 1.3803 6.1879-3.1116 5.8473-4.4802-0.34578-20.137-11.875-25.542-32.519-7.2408-27.698-3.7257-76.081-3.445-78.966" fill="#7b4800"/>
  <path d="m374.97 211.16h-3.0706c-0.2398-1.3212-0.81883-2.2501-1.7371-2.7611-0.51469-0.29417-1.082-0.43351-1.7078-0.43351-1.2107 0-2.1933 0.57286-2.9654 1.7547-0.77789 1.1664-1.1639 2.9417-1.1639 5.2899 0 2.3792 0.42111 4.0513 1.2575 5.0525 0.83637 0.9754 1.7897 1.4708 2.8601 1.4708 1.0469 0 1.9009-0.38706 2.5735-1.1715 0.66677-0.77413 1.0762-1.8012 1.24-3.0759h-3.4625v-3.2152h6.2231v10.353h-2.0646l-0.31583-2.4101c-0.60243 0.91864-1.1405 1.5637-1.6201 1.9456-0.82468 0.65543-1.8365 0.98056-3.0414 0.98056-1.9769 0-3.6029-0.88767-4.8604-2.663-1.316-1.7753-1.9769-4.2113-1.9769-7.2975 0-3.1223 0.66677-5.6357 2.0003-7.5194 1.3218-1.8837 3.0823-2.823 5.2756-2.823 1.895 0 3.4216 0.62447 4.5738 1.8682 1.1464 1.2386 1.8131 2.792 1.9828 4.6551" fill="#c62139"/>
  <path d="m389.59 217v-11.865h3.1701v11.865c0 1.3212 0.12868 2.2863 0.36847 2.9004 0.38018 1.0786 1.199 1.6257 2.4741 1.6257 1.2575 0 2.0822-0.54705 2.4623-1.6257 0.24566-0.61415 0.35678-1.5792 0.35678-2.9004v-11.865h3.1759v11.865c0 2.0437-0.24565 3.6384-0.73695 4.7893-0.92411 2.085-2.6729 3.1326-5.2639 3.1326-2.5852 0-4.3457-1.0373-5.2698-3.1326-0.49129-1.1406-0.73695-2.7456-0.73695-4.7893" fill="#c62139"/>
  <path d="m423.12 205.12-5.3438 19.312h3.2812l1.0312-3.9688h5.5l0.96875 3.9688h3.375l-5.3125-19.312h-3.5zm1.7188 4.4062 1.875 7.5938h-3.7812l1.9062-7.5938z" fill="#c62139"/>
  <path d="m451.66 220.3 2.6963-15.168h4.486v19.291h-2.9069v-13.042c0-0.3819 0.00582-0.90831 0.01175-1.5844 0.00582-0.67608 0.01175-1.1973 0.01175-1.5586l-2.8308 16.184h-3.0297l-2.8074-16.184c0 0.36126 0.00582 0.8825 0.01175 1.5586 0.00582 0.67607 0.01175 1.2025 0.01175 1.5844v13.042h-2.9069v-19.291h4.5387l2.7138 15.168" fill="#c62139"/>
  <path d="m381.6 257.07c10.703 0 19.681-1.7134 19.681-1.7134s1.3745 6.8743-19.681 6.8743c-21.056 0-19.33-5.8421-19.33-5.8421s8.6328 0.68123 19.33 0.68123" fill="#7b4800"/>
  <path d="m372.63 227.48s16.57 6.1982 23.132 27.879c0 0-15.189-3.0914-23.822 0.34578h-4.8311c0-0.01075 8.2878-12.045 5.5213-28.225" fill="#fff"/>
  <path d="m413.76 165.21c1.6143 0 2.9302 1.3109 2.9302 2.921 0 1.6154-1.316 2.921-2.9302 2.921-1.6201 0-2.9302-1.3057-2.9302-2.921 0-1.6102 1.3101-2.921 2.9302-2.921" fill="#7b4800"/>
  <path d="m409.09 164.36c1.5148 0 2.7431 1.218 2.7431 2.7301s-1.2282 2.7404-2.7431 2.7404-2.7431-1.2283-2.7431-2.7404 1.2283-2.7301 2.7431-2.7301" fill="#7b4800"/>
  <path d="m409.09 169.32c1.4154 0 2.5618 1.1354 2.5618 2.5495 0 1.4089-1.1464 2.5598-2.5618 2.5598s-2.5618-1.1509-2.5618-2.5598c0-1.4141 1.1464-2.5495 2.5618-2.5495" fill="#7b4800"/>
  <path d="m412.59 167.85c1.5207 0 2.7489 1.2231 2.7489 2.7353s-1.2282 2.7301-2.7489 2.7301c-1.5148 0-2.7431-1.218-2.7431-2.7301s1.2282-2.7353 2.7431-2.7353" fill="#7b4800"/>
</svg>

<?xml version="1.0" encoding="UTF-8"?>
<svg version="1.0" xmlns="http://www.w3.org/2000/svg" width="820" height="440">
	<rect width="820" height="440" fill="#c62139"/>
	<rect x="20" y="20" width="780" height="400" fill="#00297b"/>
	<path d="M 410.25782,100.00041 C 410.25782,100.00041 330.00038,154.71073 330.00038,219.22153 C 330.00038,283.74266 410.25782,340.00123 410.25782,340.00123 C 410.25782,340.00123 490.00057,288.38227 490.00057,219.22153 C 490.00057,150.06596 410.25782,100.00041 410.25782,100.00041" fill="#c62139"/>
	<path d="M 477.92277,240.56171 C 479.68326,233.69776 480.68341,226.5706 480.68341,219.22153 C 480.68341,157.29117 410.25782,111.35948 410.25782,111.35948 C 410.25782,111.35948 338.80284,158.84459 338.80284,219.22153 C 338.80284,226.47255 339.82054,233.53777 341.61613,240.38108 L 477.92277,240.56171" fill="#66afeb"/>
	<path d="M 409.67295,328.12609 C 409.67295,328.12609 464.90916,291.54588 477.89938,240.38108 L 341.56349,240.38108 C 354.75257,290.56016 409.67295,328.12609 409.67295,328.12609" fill="#007bde"/>
	<path d="M 480.33833,226.4519 C 468.25468,235.06023 400.2505,230.92637 400.2505,230.92637 L 396.44877,240.56171 L 477.91692,240.56171 C 478.25615,239.24053 478.56615,237.91934 478.84689,236.58268 L 480.33833,226.4519" fill="#9c8431"/>
	<path d="M 406.07592,287.35526 C 405.04068,280.14553 373.23483,272.42488 356.35514,273.05967 C 361.62492,281.32737 367.59656,288.8932 373.6033,295.6178 C 382.17767,286.41598 406.41515,289.73442 406.07592,287.35526" fill="#fff100"/>
	<path d="M 470.45384,260.54973 C 466.4123,260.69424 459.07789,261.33935 454.05376,263.9559 C 446.80708,267.73882 430.58246,271.87267 423.32993,269.80316 C 416.08324,267.73882 404.68975,274.27763 406.07592,275.65042 C 408.3745,277.94701 425.05533,275.3098 425.05533,290.106 C 425.05533,302.49207 405.73084,296.99059 398.13323,302.15146 C 393.5536,305.25314 390.36015,308.62318 388.54703,310.79074 C 400.40842,321.7679 409.69634,328.12609 409.69634,328.12609 C 409.69634,328.12609 431.71713,313.54148 451.21708,289.92537 L 460.38802,277.75605 C 464.08448,272.34231 467.51188,266.59827 470.45384,260.54973" fill="#fff100"/>
	<path d="M 384.64001,257.16421 L 387.56442,257.16421 L 387.56442,225.68294 L 384.64001,225.68294 L 384.64001,257.16421 z" fill="#000"/>
	<path d="M 394.13849,263.0992 C 394.13849,263.0992 392.93949,263.3108 391.03277,263.55336 L 391.03277,261.09678 L 389.09097,261.09678 L 389.09097,263.76495 C 387.10236,263.96623 384.69266,264.13137 382.16596,264.13137 C 379.48136,264.13137 376.77336,263.93526 374.53911,263.70818 L 374.53911,261.16388 L 372.39844,261.16388 L 372.39844,263.46562 C 370.55022,263.23338 369.35706,263.03211 369.35706,263.03211 C 369.35706,263.03211 368.77218,266.25765 381.97881,266.25765 C 395.17957,266.25765 394.14434,263.0992 394.14434,263.0992" fill="#7b4800"/>
	<path d="M 405.85951,165.16664 C 405.85951,165.16664 394.85205,158.71556 379.83814,161.80692 C 364.82422,164.90344 361.58399,174.31686 361.58399,174.31686 L 366.63151,171.99963 L 366.76019,174.06397 L 371.29302,171.2255 L 371.42169,173.28984 L 375.3053,169.6824 L 375.94283,171.99963 L 379.44041,168.90311 L 379.70361,170.58039 L 385.39451,166.96779 L 385.39451,169.29017 L 389.92734,167.22067 L 389.54132,169.4192 L 398.08645,167.8761 C 398.08645,167.8761 377.89048,174.58006 375.3053,190.70776 L 379.18307,186.0733 L 379.57494,188.25635 L 382.03144,183.35869 L 382.68066,185.29401 L 384.87981,180.77826 L 385.52319,183.48255 L 388.88626,178.57973 L 389.14946,181.42337 L 393.02722,176.13348 L 393.02722,178.70359 L 397.17403,174.18783 L 397.04535,177.55272 C 397.04535,177.55272 401.05764,174.18783 402.34438,174.18783 L 397.56005,180.38603 L 399.11584,180.90212 C 399.11584,180.90212 395.74692,183.61157 395.48957,184.12766 C 395.23222,184.63858 397.69457,184.12766 397.69457,184.12766 C 397.69457,184.12766 394.71168,187.21902 394.583,188.12733 C 394.45433,189.03564 396.5248,188.12733 396.5248,188.12733 C 396.5248,188.12733 393.80511,191.60575 393.41909,192.90629 C 393.02722,194.1965 394.84034,193.15917 394.84034,193.15917 C 394.84034,193.15917 393.16174,197.28786 393.02722,198.44906 C 392.89854,199.59993 394.96902,198.18585 394.96902,198.18585 L 396.13879,205.28204 L 398.20926,196.77694 L 399.50185,198.71226 L 399.50185,192.64308 L 400.66576,193.6701 L 400.5371,189.68075 L 402.08704,191.22385 L 401.31499,186.32103 L 402.9936,188.24603 L 402.73625,184.12766 L 404.41486,185.8101 L 404.41486,180.38603 L 405.97065,181.79495 L 406.228,178.0688 L 408.04112,178.96679 C 408.04112,178.96679 408.29847,174.45104 410.3748,174.58006 C 412.43943,174.69876 415.03046,176.89729 413.99522,177.9243 L 415.80835,177.4237 L 415.42233,181.79495 L 417.10094,180.76794 L 416.84359,183.99348 L 418.26485,183.34837 L 417.75016,187.4719 L 419.43462,186.45521 L 419.55744,191.47157 L 421.4934,190.06265 L 421.36472,195.98732 L 423.30653,194.44939 L 423.30653,199.34705 L 425.11967,198.06715 L 427.06732,202.83579 L 426.67546,195.7396 L 428.10257,196.89564 L 425.50568,191.86895 L 427.45334,191.60575 L 425.37701,188.24603 L 427.31882,188.39053 L 424.4763,185.03081 L 426.41226,184.64891 L 422.13676,181.54723 L 424.47045,180.64924 L 420.06629,177.8056 L 421.75075,177.16049 L 418.65088,173.93495 L 421.88527,175.22517 L 422.91466,173.16082 L 426.79827,176.2625 L 426.79827,173.16082 L 430.16134,177.8056 L 430.55322,174.96196 L 433.14424,178.57973 L 433.65894,176.90761 L 435.47207,180.51505 L 436.37279,177.81592 L 438.18591,181.68657 L 438.70061,178.96679 L 440.38507,183.22967 L 441.94086,181.54723 L 442.71875,185.93912 L 444.26284,184.25668 L 445.6841,188.12733 L 447.49723,186.70809 L 449.05302,191.09999 C 449.05302,191.09999 453.32265,167.61289 416.69152,167.22067 L 405.81858,165.16664" fill="#009270"/>
	<path d="M 389.03248,144.25998 L 391.0971,146.83009 L 390.06187,147.61455 L 393.55946,149.54987 L 392.78156,150.96395 L 396.27916,152.25416 L 394.98072,153.2915 L 398.09228,155.08748 L 396.02181,155.74291 L 399.7709,157.54405 L 399.25621,159.21617 L 402.49059,159.99546 L 401.06933,161.15149 L 404.81843,164.12931 L 409.09391,167.09165 L 412.07096,166.06463 L 410.9012,160.37736 C 410.9012,160.37736 398.60698,143.60455 389.03248,144.24966" fill="#009270"/>
	<path d="M 400.29144,128.00326 L 401.71855,131.3475 L 399.7709,131.73973 L 404.17505,136.12646 L 400.67747,136.25548 L 404.95295,139.60489 L 402.87662,140.26031 L 406.76609,144.13096 L 404.68975,145.15797 L 408.70204,149.15764 L 405.98819,150.18466 L 410.52102,154.31851 L 407.93,154.45269 L 410.64385,157.92595 L 408.18735,158.70524 C 408.18735,158.70524 411.1644,164.24801 411.02986,166.57556 L 416.0774,166.82844 C 416.0774,166.82844 416.85528,151.86194 416.21192,149.92661 L 414.91348,150.82976 L 415.29951,145.41086 L 413.3577,146.57721 L 412.97752,140.12613 L 411.02986,142.18532 L 410.52102,135.86326 L 409.09391,138.06179 L 407.6668,131.86359 L 406.11686,133.79891 L 404.68975,129.8044 L 403.52584,131.3475 L 400.29144,127.99294" fill="#009270"/>
	<path d="M 413.36355,165.67757 C 414.79066,156.64606 424.24235,143.48585 441.97595,142.96977 L 437.95781,145.03411 L 440.2915,146.06629 L 435.62999,147.74873 L 437.95781,149.15764 L 432.39559,149.54987 L 435.23812,151.48519 L 431.103,152.00128 L 427.86276,152.64639 L 430.19058,154.83459 L 425.52909,155.34552 L 428.51198,156.89894 C 428.51198,156.89894 421.13078,159.47937 420.61608,160.25866 C 420.61608,160.25866 445.47354,153.9366 451.55631,165.66725 L 446.76028,163.6029 L 447.15216,165.80143 L 443.78908,163.35002 L 444.30378,165.15632 L 440.81204,163.35002 L 441.32674,165.53823 L 437.70046,163.47388 L 438.47836,165.41953 L 433.81685,163.221 L 434.59474,165.28534 L 430.58246,163.99513 L 430.97433,166.18333 L 426.9562,165.93045 L 427.34806,168.51088 L 414.91933,168.24768 L 413.36355,165.66725" fill="#009270"/>
	<path d="M 409.56767,173.46015 L 412.15869,173.28984 C 410.94798,197.89684 412.08262,233.17651 415.43403,246.23866 C 421.12493,268.42521 437.71802,276.9716 441.66597,279.09788 C 443.90606,280.2952 443.04628,285.28575 438.5544,284.94514 C 434.0742,284.59936 418.41693,273.06999 413.01262,252.42653 C 405.77178,224.72818 409.28692,176.34508 409.56767,173.46015" fill="#7b4800"/>
	<path d="M 374.97192,211.16026 L 371.90129,211.16026 C 371.66149,209.83908 371.08246,208.91013 370.16419,208.3992 C 369.6495,208.10503 369.08216,207.96569 368.45634,207.96569 C 367.24564,207.96569 366.26304,208.53855 365.49099,209.72038 C 364.7131,210.88674 364.32708,212.66208 364.32708,215.01027 C 364.32708,217.38943 364.74819,219.06155 365.58458,220.06276 C 366.42095,221.03816 367.37431,221.5336 368.44465,221.5336 C 369.49158,221.5336 370.34551,221.14654 371.01812,220.36209 C 371.68489,219.58796 372.09431,218.56094 372.25807,217.28621 L 368.79557,217.28621 L 368.79557,214.07099 L 375.01871,214.07099 L 375.01871,224.42369 L 372.95408,224.42369 L 372.63825,222.01356 C 372.03582,222.9322 371.49773,223.5773 371.01812,223.95921 C 370.19344,224.61464 369.1816,224.93977 367.97674,224.93977 C 365.99984,224.93977 364.37387,224.0521 363.11637,222.27677 C 361.80039,220.50143 361.13947,218.0655 361.13947,214.9793 C 361.13947,211.85698 361.80624,209.34364 363.13977,207.45993 C 364.4616,205.57621 366.22209,204.63693 368.41541,204.63693 C 370.31041,204.63693 371.83696,205.2614 372.98917,206.50517 C 374.13554,207.74377 374.80231,209.29719 374.97192,211.16026" fill="#c62139"/>
	<path d="M 389.58811,216.9972 L 389.58811,205.13238 L 392.75817,205.13238 L 392.75817,216.9972 C 392.75817,218.31838 392.88685,219.28346 393.12664,219.89761 C 393.50682,220.97623 394.32565,221.52328 395.6007,221.52328 C 396.85819,221.52328 397.68288,220.97623 398.06304,219.89761 C 398.3087,219.28346 398.41982,218.31838 398.41982,216.9972 L 398.41982,205.13238 L 401.59573,205.13238 L 401.59573,216.9972 C 401.59573,219.0409 401.35008,220.63561 400.85878,221.78648 C 399.93467,223.87147 398.18587,224.91913 395.59485,224.91913 C 393.00966,224.91913 391.24918,223.88179 390.32506,221.78648 C 389.83377,220.64593 389.58811,219.0409 389.58811,216.9972" fill="#c62139"/>
	<path d="M 423.125 205.125 L 417.78125 224.4375 L 421.0625 224.4375 L 422.09375 220.46875 L 427.59375 220.46875 L 428.5625 224.4375 L 431.9375 224.4375 L 426.625 205.125 L 423.125 205.125 z M 424.84375 209.53125 L 426.71875 217.125 L 422.9375 217.125 L 424.84375 209.53125 z" fill="#c62139"/>
	<path d="M 451.65574,220.30015 L 454.35204,205.13238 L 458.83808,205.13238 L 458.83808,224.42369 L 455.93122,224.42369 L 455.93122,211.38218 C 455.93122,211.00028 455.93704,210.47387 455.94297,209.7978 C 455.94879,209.12172 455.95472,208.60048 455.95472,208.23922 L 453.12389,224.42369 L 450.09422,224.42369 L 447.28678,208.23922 C 447.28678,208.60048 447.2926,209.12172 447.29853,209.7978 C 447.30435,210.47387 447.31028,211.00028 447.31028,211.38218 L 447.31028,224.42369 L 444.40342,224.42369 L 444.40342,205.13238 L 448.9421,205.13238 L 451.65595,220.30015" fill="#c62139"/>
	<path d="M 381.60448,257.07131 C 392.30781,257.07131 401.28575,255.3579 401.28575,255.3579 C 401.28575,255.3579 402.66021,262.23217 381.60448,262.23217 C 360.54874,262.23217 362.27415,256.39008 362.27415,256.39008 C 362.27415,256.39008 370.90699,257.07131 381.60448,257.07131" fill="#7b4800"/>
	<path d="M 372.62655,227.47892 C 372.62655,227.47892 389.19624,233.67711 395.75861,255.3579 C 395.75861,255.3579 380.56924,252.26655 371.93638,255.70368 L 367.10526,255.70368 C 367.10526,255.69293 375.39303,243.65823 372.62655,227.47892" fill="#fff"/>
	<path d="M 413.75542,165.20793 C 415.36969,165.20793 416.68567,166.51879 416.68567,168.12898 C 416.68567,169.74433 415.36969,171.05003 413.75542,171.05003 C 412.1353,171.05003 410.82517,169.74433 410.82517,168.12898 C 410.82517,166.51879 412.1353,165.20793 413.75542,165.20793" fill="#7b4800"/>
	<path d="M 409.09391,164.36155 C 410.60875,164.36155 411.837,165.57951 411.837,167.09165 C 411.837,168.60378 410.60875,169.83207 409.09391,169.83207 C 407.57907,169.83207 406.35081,168.60378 406.35081,167.09165 C 406.35081,165.57951 407.57907,164.36155 409.09391,164.36155" fill="#7b4800"/>
	<path d="M 409.09391,169.32114 C 410.50933,169.32114 411.65569,170.45653 411.65569,171.87061 C 411.65569,173.27952 410.50933,174.4304 409.09391,174.4304 C 407.6785,174.4304 406.53213,173.27952 406.53213,171.87061 C 406.53213,170.45653 407.6785,169.32114 409.09391,169.32114" fill="#7b4800"/>
	<path d="M 412.58566,167.84513 C 414.10635,167.84513 415.3346,169.06826 415.3346,170.58039 C 415.3346,172.09252 414.10635,173.31049 412.58566,173.31049 C 411.07081,173.31049 409.84256,172.09252 409.84256,170.58039 C 409.84256,169.06826 411.07081,167.84513 412.58566,167.84513" fill="#7b4800"/>
</svg>
